static/images/past-sponsors/hightec.svg

<svg width="343" height="106" viewBox="0 0 343 106" fill="none" xmlns="http://www.w3.org/2000/svg">
<path fill-rule="evenodd" clip-rule="evenodd" d="M62.25 30.7402V52.6302L83.99 30.7402" fill="#A1D1FF"/>
<path fill-rule="evenodd" clip-rule="evenodd" d="M106.24 30.7402V52.6302L128.06 30.7402" fill="#A1D1FF"/>
<path fill-rule="evenodd" clip-rule="evenodd" d="M83.9902 30.7402V52.6302H84.0602L106.24 30.7402" fill="#A1D1FF"/>
<path fill-rule="evenodd" clip-rule="evenodd" d="M106.24 52.63V30.74L83.99 52.63V9L62.25 30.74V9L40 31.25V74.88L62.25 52.63V74.52L83.99 52.63V96.41L106.24 74.02V52.64V52.63ZM62.25 30.74H83.99L62.25 52.63" fill="#0080BF"/>
<path fill-rule="evenodd" clip-rule="evenodd" d="M303.9 62.8599H300.26V66.4999C300.26 68.9299 296.97 70.8299 294.88 70.8299H293.84C291.58 70.8299 288.46 68.9199 288.46 66.4999V39.2599C288.46 37.0099 291.76 35.2699 293.84 35.2699H294.88C296.97 35.2699 300.26 37.0099 300.26 39.2599V42.8999H303.9V39.2599C303.9 34.7499 298.87 31.6299 294.88 31.6299H293.84C289.67 31.6299 284.82 35.4499 284.82 39.2599V66.4999C284.82 71.0099 289.85 74.4799 293.84 74.4799H294.88C299.04 74.4799 303.9 70.4899 303.9 66.4999" fill="#053964"/>
<path fill-rule="evenodd" clip-rule="evenodd" d="M261.21 31.7998V74.8298H278.56V71.0098H265.03V55.2198H277.52V51.3998H265.03V35.6098H278.56V31.7998" fill="#053964"/>
<path fill-rule="evenodd" clip-rule="evenodd" d="M232.23 31.7998V35.6098H242.13V74.8298H245.95V35.6098H256.01V31.7998" fill="#053964"/>
<path fill-rule="evenodd" clip-rule="evenodd" d="M197.42 52.9604H187.7V56.2604H193.6V70.1404C193.43 71.7004 191.35 71.7004 187.01 71.7004C181.8 71.3504 179.9 69.9604 179.72 67.7104V39.0804C181.28 32.1404 194.3 33.1804 193.6 42.9004H197.42C198.63 28.1504 177.63 27.8004 175.9 38.5604V68.2304C176.6 73.2604 180.93 75.0004 187.18 75.0004C192.21 75.0004 197.07 74.3104 197.42 70.8304" fill="#053964"/>
<path fill-rule="evenodd" clip-rule="evenodd" d="M223.27 31.7998V51.3998H209.39V31.7998H205.57V74.8298H209.39V55.2198H223.27L223.1 74.8298H226.92L227.09 31.7998" fill="#053964"/>
<path fill-rule="evenodd" clip-rule="evenodd" d="M163.57 31.7998V74.8298H167.39V31.7998" fill="#053964"/>
<path fill-rule="evenodd" clip-rule="evenodd" d="M150.9 31.7998V51.3998H137.2V31.7998H133.38V74.8298H137.2V55.2198H150.9V74.8298H154.72V31.7998" fill="#053964"/>
</svg>

<svg fill="none" height="106" viewBox="0 0 343 106" width="343" xmlns="http://www.w3.org/2000/svg"><g clip-rule="evenodd" fill-rule="evenodd"><path d="m62.25 30.7402v21.89l21.74-21.89" fill="#a1d1ff"/><path d="m106.24 30.7402v21.89l21.82-21.89" fill="#a1d1ff"/><path d="m83.9902 30.7402v21.89h.07l22.1798-21.89" fill="#a1d1ff"/><path d="m106.24 52.63v-21.89l-22.25 21.89v-43.63l-21.74 21.74v-21.74l-22.25 22.25v43.63l22.25-22.25v21.89l21.74-21.89v43.78l22.25-22.39v-21.38zm-43.99-21.89h21.74l-21.74 21.89" fill="#0080bf"/><g fill="#053964"><path d="m303.9 62.8599h-3.64v3.64c0 2.43-3.29 4.33-5.38 4.33h-1.04c-2.26 0-5.38-1.91-5.38-4.33v-27.24c0-2.25 3.3-3.99 5.38-3.99h1.04c2.09 0 5.38 1.74 5.38 3.99v3.64h3.64v-3.64c0-4.51-5.03-7.63-9.02-7.63h-1.04c-4.17 0-9.02 3.82-9.02 7.63v27.24c0 4.51 5.03 7.98 9.02 7.98h1.04c4.16 0 9.02-3.99 9.02-7.98"/><path d="m261.21 31.7998v43.03h17.35v-3.82h-13.53v-15.79h12.49v-3.82h-12.49v-15.79h13.53v-3.81"/><path d="m232.23 31.7998v3.81h9.9v39.22h3.82v-39.22h10.06v-3.81"/><path d="m197.42 52.9604h-9.72v3.3h5.9v13.88c-.17 1.56-2.25 1.56-6.59 1.56-5.21-.35-7.11-1.74-7.29-3.99v-28.63c1.56-6.94 14.58-5.9 13.88 3.82h3.82c1.21-14.75-19.79-15.1-21.52-4.34v29.67c.7 5.03 5.03 6.77 11.28 6.77 5.03 0 9.89-.69 10.24-4.17"/><path d="m223.27 31.7998v19.6h-13.88v-19.6h-3.82v43.03h3.82v-19.61h13.88l-.17 19.61h3.82l.17-43.03"/><path d="m163.57 31.7998v43.03h3.82v-43.03"/><path d="m150.9 31.7998v19.6h-13.7v-19.6h-3.82v43.03h3.82v-19.61h13.7v19.61h3.82v-43.03"/></g></g></svg>
